svgs/sharp-thin/chalkboard-user.svg

<svg xmlns="http://www.w3.org/2000/svg" viewBox="0 0 640 512"><!--! Font Awesome Pro 6.6.0 by @fontawesome - https://fontawesome.com License - https://fontawesome.com/license (Commercial License) Copyright 2024 Fonticons, Inc. --><path d="M624 16L176 16l0 81c-5.2-.7-10.6-1-16-1l0-80 0-16 16 0L624 0l16 0 0 16 0 384 0 16-16 0-80 0-8 0-144 0-8 0-59.4 0-4.8-16 64.2 0 0-72 0-8 8 0 144 0 8 0 0 8 0 72 80 0 0-384zM528 400l0-64-128 0 0 64 128 0zM240 224A80 80 0 1 0 80 224a80 80 0 1 0 160 0zM64 224a96 96 0 1 1 192 0A96 96 0 1 1 64 224zM21.5 496l277 0L260.1 368 59.9 368 21.5 496zM48 352l224 0 43.2 144 4.8 16-16.7 0L16.7 512 0 512l4.8-16L48 352z"/></svg>

<svg xmlns="http://www.w3.org/2000/svg" viewBox="0 0 640 512"><!--! Font Awesome Pro 6.5.2 by @fontawesome - https://fontawesome.com License - https://fontawesome.com/license (Commercial License) Copyright 2024 Fonticons, Inc. --><path d="M624 16H176V97c-5.2-.7-10.6-1-16-1V16 0h16H624h16V16 400v16H624 544h-8H392h-8H324.6l-4.8-16H384V328v-8h8H536h8v8 72h80V16zM528 400V336H400v64H528zM240 224A80 80 0 1 0 80 224a80 80 0 1 0 160 0zM64 224a96 96 0 1 1 192 0A96 96 0 1 1 64 224zM21.5 496h277L260.1 368H59.9L21.5 496zM48 352H272l43.2 144 4.8 16H303.3 16.7 0l4.8-16L48 352z"/></svg>
